pro/src/icons/stroke-download.svg

<svg width="48" height="48" viewBox="0 0 48 48" fill="none" xmlns="http://www.w3.org/2000/svg">
<path id="icon" fill-rule="evenodd" clip-rule="evenodd" d="M24.9944 30.5872L24.9944 3.00098C24.9944 2.44869 24.5467 2.00098 23.9944 2.00098C23.4421 2.00098 22.9944 2.44869 22.9944 3.00098L22.9944 30.5862L18.7039 26.2931C18.3138 25.9027 17.6808 25.9023 17.2901 26.2921C16.8994 26.682 16.899 27.3145 17.2891 27.7049L23.2875 33.7069C23.475 33.8946 23.7295 34 23.9949 34C24.2602 34 24.5147 33.8946 24.7023 33.7069L30.7006 27.7049C31.0907 27.3145 31.0903 26.682 30.6996 26.2921C30.3089 25.9023 29.676 25.9027 29.2858 26.2931L24.9944 30.5872ZM10.1888 13.0045C8.98274 13.0045 7.99944 13.9897 7.99944 15.2038V38.7962C7.99944 40.0103 8.98274 40.9955 10.1888 40.9955H37.8112C39.0173 40.9955 40.0006 40.0103 40.0006 38.7962V15.2038C40.0006 13.9897 39.0173 13.0045 37.8112 13.0045H30.3732C29.8211 13.0045 29.3735 12.5558 29.3735 12.0023C29.3735 11.4487 29.8211 11 30.3732 11H37.8112C40.1241 11 42 12.8852 42 15.2038V38.7962C42 41.1148 40.1241 43 37.8112 43H10.1888C7.87591 43 6 41.1148 6 38.7962V15.2038C6 12.8852 7.87591 11 10.1888 11H17.6268C18.1789 11 18.6265 11.4487 18.6265 12.0023C18.6265 12.5558 18.1789 13.0045 17.6268 13.0045H10.1888Z" fill="currentColor"/>
</svg>

<svg xmlns="http://www.w3.org/2000/svg" width="48" height="48" fill="none"><path id="icon" fill="currentColor" fill-rule="evenodd" d="M24.994 30.587V3.001a1 1 0 1 0-2 0v27.585l-4.29-4.293a1 1 0 0 0-1.415 1.412l5.999 6.002a1 1 0 0 0 1.414 0l5.999-6.002a.999.999 0 1 0-1.415-1.412zM10.19 13.005c-1.206 0-2.19.985-2.19 2.199v23.592c0 1.214.984 2.2 2.19 2.2H37.81c1.206 0 2.19-.986 2.19-2.2V15.204c0-1.214-.984-2.2-2.19-2.2h-7.438c-.552 0-1-.448-1-1.002 0-.553.448-1.002 1-1.002h7.438C40.124 11 42 12.885 42 15.204v23.592C42 41.115 40.124 43 37.811 43H10.19C7.876 43 6 41.115 6 38.796V15.204C6 12.885 7.876 11 10.189 11h7.438a1.001 1.001 0 0 1 0 2.005z" clip-rule="evenodd"/></svg>
